src/ios-game-controller-b.svg

<?xml version="1.0" encoding="utf-8"?>
<!-- Generated by IcoMoon.io -->
<!DOCTYPE svg PUBLIC "-//W3C//DTD SVG 1.1//EN" "http://www.w3.org/Graphics/SVG/1.1/DTD/svg11.dtd">
<svg version="1.1" xmlns="http://www.w3.org/2000/svg" xmlns:xlink="http://www.w3.org/1999/xlink" width="512" height="512" viewBox="0 0 512 512">
<path fill="#000000" d="M135.123 204.568c-10.688 0-19.343 8.717-19.343 19.441 0 10.727 8.655 19.447 19.343 19.447 10.641 0 19.297-8.721 19.297-19.447 0-10.724-8.656-19.441-19.297-19.441z"></path>
<path fill="#000000" d="M466.279 248.866c-21.157-88.471-43.631-135.489-88.454-148.83-9.765-2.901-18.077-4.036-25.749-4.036-27.598 0-46.938 14.683-96.080 14.683-49.174 0-68.502-14.681-96.062-14.683-7.665 0-15.963 1.135-25.721 4.036-44.869 13.341-67.342 60.359-88.461 148.83-21.181 88.473-17.334 152.363 7.679 164.289 4.071 1.945 8.231 2.845 12.454 2.845 21.694 0 45.139-23.838 67.659-52.047 25.654-32.105 32.114-32.953 110.278-32.953h24.343c78.147 0 84.628 0.846 110.282 32.953 22.526 28.207 45.97 52.004 67.665 52.004 4.226 0 8.384-0.879 12.457-2.823 25.005-11.926 28.852-75.795 7.71-164.268zM135.234 263.633c-21.64 0-39.234-17.758-39.234-39.623 0-21.84 17.594-39.643 39.234-39.643 21.655 0 39.249 17.803 39.249 39.643 0 21.865-17.593 39.623-39.249 39.623zM308.076 244.14c-11.058 0-20.076-9.019-20.076-20.107 0-11.090 9.019-20.104 20.076-20.104 11.131 0 20.148 9.014 20.148 20.104 0.001 11.088-9.017 20.107-20.148 20.107zM351.988 288c-11.058 0-20.053-8.951-20.053-20.016 0-11.157 8.995-20.106 20.053-20.106 11.146 0 20.148 8.949 20.148 20.106 0.001 11.065-9.002 20.016-20.148 20.016zM351.988 200.19c-11.058 0-20.053-8.993-20.053-20.083 0-11.094 8.995-20.107 20.053-20.107 11.146 0 20.148 9.014 20.148 20.107 0.001 11.090-9.002 20.083-20.148 20.083zM395.947 244.14c-11.105 0-20.101-9.019-20.101-20.107 0-11.090 8.995-20.104 20.101-20.104 11.059 0 20.053 9.014 20.053 20.104 0 11.088-8.994 20.107-20.053 20.107z"></path>
</svg>

<?xml version="1.0" encoding="utf-8"?>
<!-- Generator: Adobe Illustrator 16.2.1, SVG Export Plug-In . SVG Version: 6.00 Build 0)  -->
<!DOCTYPE svg PUBLIC "-//W3C//DTD SVG 1.1//EN" "http://www.w3.org/Graphics/SVG/1.1/DTD/svg11.dtd">
<svg version="1.1" id="Layer_1" xmlns="http://www.w3.org/2000/svg" xmlns:xlink="http://www.w3.org/1999/xlink" x="0px" y="0px"
	 width="512px" height="512px" viewBox="0 0 512 512" enable-background="new 0 0 512 512" xml:space="preserve">
<g>
	<path d="M135.123,204.568c-10.688,0-19.343,8.717-19.343,19.441c0,10.727,8.655,19.447,19.343,19.447
		c10.641,0,19.297-8.721,19.297-19.447C154.42,213.285,145.764,204.568,135.123,204.568z"/>
	<path d="M466.279,248.866c-21.157-88.471-43.631-135.489-88.454-148.83C368.06,97.135,359.748,96,352.076,96
		c-27.598,0-46.938,14.683-96.08,14.683c-49.174,0-68.502-14.681-96.062-14.683c-7.665,0-15.963,1.135-25.721,4.036
		c-44.869,13.341-67.342,60.359-88.461,148.83c-21.181,88.473-17.334,152.363,7.679,164.289C57.502,415.1,61.662,416,65.885,416
		c21.694,0,45.139-23.838,67.659-52.047C159.198,331.848,165.658,331,243.822,331h24.343c78.147,0,84.628,0.846,110.282,32.953
		c22.526,28.207,45.97,52.004,67.665,52.004c4.226,0,8.384-0.879,12.457-2.823C483.574,401.208,487.421,337.339,466.279,248.866z
		 M135.234,263.633C113.594,263.633,96,245.875,96,224.01c0-21.84,17.594-39.643,39.234-39.643
		c21.655,0,39.249,17.803,39.249,39.643C174.483,245.875,156.89,263.633,135.234,263.633z M308.076,244.14
		c-11.058,0-20.076-9.019-20.076-20.107c0-11.09,9.019-20.104,20.076-20.104c11.131,0,20.148,9.014,20.148,20.104
		C328.225,235.121,319.207,244.14,308.076,244.14z M351.988,288c-11.058,0-20.053-8.951-20.053-20.016
		c0-11.157,8.995-20.106,20.053-20.106c11.146,0,20.148,8.949,20.148,20.106C372.137,279.049,363.134,288,351.988,288z
		 M351.988,200.19c-11.058,0-20.053-8.993-20.053-20.083c0-11.094,8.995-20.107,20.053-20.107c11.146,0,20.148,9.014,20.148,20.107
		C372.137,191.197,363.134,200.19,351.988,200.19z M395.947,244.14c-11.105,0-20.101-9.019-20.101-20.107
		c0-11.09,8.995-20.104,20.101-20.104c11.059,0,20.053,9.014,20.053,20.104C416,235.121,407.006,244.14,395.947,244.14z"/>
</g>
</svg>
